!!!!SEGMENT: pl-wn--sd-xvi-qu-273--072_gomolka-mikolaj--daj-swe-baczenie-boze-krolowi.krn
!!!cenid: 15xx:277
!!!COM: Gomółka, Mikołaj
!!!COM-rismid: pe30013343
!!!CDT: ~1535->1591/04/30
!!!CNT: Polish
!!!GTL: Melodiae na psalterz polski
!!!OTL: LXXII. Daj swe baczenie, Boże, królowi,
!!!ONB: PSALM LXXII. Deus iudicium tuum Regi da: et iusticiam tuam filio regis.
!!!PDT: 1580
!!!AGN: Sacred
!!!SMS-siglum: PL-Wn
!!!SMS-shelfmark: SD XVI.Qu.273
!!!SMS-shelfwork: 072 G
!!!NIFC-rismid:
!!!ONB-nifc: Melodiae na psalterz polski
**kern	**text	**kern	**text	**kern	**text	**kern	**text
*part4	*part4	*part3	*part3	*part2	*part2	*part1	*part1
*staff4	*staff4	*staff3	*staff3	*staff2	*staff2	*staff1	*staff1
*clefF4	*	*clefC3	*	*clefC3	*	*clefC1	*
*k[]	*	*k[]	*	*k[]	*	*k[]	*
*G:	*	*G:	*	*G:	*	*G:	*
*M2/1	*	*M2/1	*	*M2/1	*	*M2/1	*
*met(C|)	*	*met(C|)	*	*met(C|)	*	*met(C|)	*
*I"BASSUS.	*	*I"TENOR.	*	*I"ALTUS.	*	*I"CANTUS.	*
*>[A,A,B]	*	*>[A,A,B]	*	*>[A,A,B]	*	*>[A,A,B]	*
=1-	=1	=1-	=1	=1-	=1	=1-	=1
*>A	*	*>A	*	*>A	*	*>A	*
*	*^	*	*^	*	*^	*	*^
1G\	DAy	Day	1B/	DAy	Day	1d\	DAy	Dáy	1g\	DAy	Day
2C/	swé	sprá-	2c/	swé	sprá-	2e\	swé	sprá-	2g/	swé	sprá-
2.F\	ba-	-wie-	1c\	ba-	-wie-	1f\	ba-	-wie-	1a\	ba-	-wie-
=2-	=2	=2	=2-	=2	=2	=2-	=2	=2	=2-	=2	=2
4E\	-cze-	.	.	.	.	.	.	.	.	.	.
2D/	-nié,	-dli-	2d\	-cze-	-dli-	2f\	-cze-	-dli-	2b\	-cze-	-dli-
2C/	.	-(wość)	2e\	-nié,	-(wość)	2g\	-nié,	-(wość)	2cc\	-nié,	-(wość)
1G\	bo-	kró-	1d\	bo-	kró-	1g\	bo-	kró-	1b\	bo-	kró-
=3-	=3	=3	=3-	=3	=3	=3-	=3	=3	=3-	=3	=3
.	.	.	.	.	.	.	.	.	.	.	.
2A\	-że,	-le-	2c/	-że,	-le-	2e\	-że,	-le-	2a\	-że,	-le-
2F\	kró-	-wi-	2c/	kró-	-wi-	2f\	kró-	-wi-	2a\	kró-	-wi-
2G\	-lo-	-co-	2B/	-lo-	-co-	2d\	-lo-	-co-	4g/	-lo-	-co-
.	.	.	.	.	.	.	.	.	4f/	.	.
=4-	=4	=4	=4-	=4	=4	=4-	=4	=4	=4-	=4	=4
1C/	-wi,	-wi:	1c\	-wi,	-wi:	1e\	-wi,	-wi.	1e/	-wi,	-wi:
*	*v	*v	*	*v	*v	*	*v	*v	*	*v	*v
=:|!	=	=:|!	=	=:|!	=	=:|!	=
*>B	*	*>B	*	*>B	*	*>B	*
1C/	A-	1e\	A-	1g\	A-	1cc\	A-
=5-	=5	=5-	=5	=5-	=5	=5-	=5
2GG/	-by	2d\	-by	2g\	-by	2b\	-by
1D\	w po-	1d\	w po-	1f\	w po-	1a\	w po-
2D/	-rząd-	2d\	-rząd-	2f\	-rząd-	2a\	-rząd-
=6-	=6	=6-	=6	=6-	=6	=6-	=6
2A\	-ku	2c/	-ku	2e\	-ku	2a\	-(ku)
2F\	twóy	2A/	twóy	2f\	twóy	1dd\	tw(óy)
2G\	lud	1B/	lud	2d\	lud	.	.
2GG/	.	.	.	2g\	.	2b\	lud
=7-	=7	=7-	=7	=7-	=7	=7-	=7
!!LO:PB:g=original
2C/	sprá-	2c/	sprá-	2g\	sprá-	2ee\	sprá-
2D/	-wo-	2A/	-wo-	2f\	-wo-	4dd\	-wo-
.	.	.	.	.	.	4cc\	.
2GG/	-wał,	2B/	-wał,	2g\	-wał,	2b\	-wał,
2C/	Je-	2e\	Je-	2g\	Je-	2cc\	Je-
=8-	=8	=8-	=8	=8-	=8	=8-	=8
2.E\	.	1e\	-dná-	1g\	-dná-	1cc\	-dná-
4F\	-dná-	.	.	.	.	.	.
2G\	.	1d\	-ko	1g\	-ko	1b\	-ko
2GG/	-ko	.	.	.	.	.	.
=9-	=9	=9-	=9	=9-	=9	=9-	=9
2D/	z pá-	2d\	z pá-	2f\	z pá-	1a\	z pá-
2.D/	.	2.d\	-ny	1f\	-ny	.	.
.	.	.	.	.	.	2a\	-ny
4E\	-ny	4c/	chu-	.	.	.	.
2F\	chu-	2A/	.	2c/	chu-	1f/	.
=10-	=10	=10-	=10	=10-	=10	=10-	=10
2D/	-dé	2A/	-dé	2d\	-dé	.	.
2E\	szá-	2G/	szá-	4B/	sza-	2e/	chu-
.	.	.	.	4c/	-co-	.	.
1D\	-co-	4A/	.	1d\	-wał.	4f/	-dé
.	.	2B/	-co-	.	.	2g/	szá-
.	.	4A/	-wał.	.	.	4f/	-co-
=11-	=11	=11-	=11	=11-	=11	=11-	=11
*000/left	*	*	*	*	*	*	*
000G/	-wał.	000B/	.	000d\	.	000g\	-wał.
==	==	==	==	==	==	==	==
*-	*-	*-	*-	*-	*-	*-	*-
!!!RDF**kern: l = terminal long
!!!system-decoration: s1,s2,s3,s4
!!!ENC: Marta Lawrence
!!!END: 2020-02-13
!!!URL-scan: https://polona.pl/item/melodiae-na-psalterz-polski,Nzk3MTM4ODQ/173 Scan on Polona
!!!IIIF: https://polona.pl/iiif/item/Nzk3MTM4ODQ/manifest.json
